ecoconception/src/assets/svg/facebook.svg

<svg width="66" height="66" viewBox="0 0 66 66" fill="none" xmlns="http://www.w3.org/2000/svg">
<path d="M33 0C14.7727 0 0 14.7727 0 33C0 51.2273 14.7727 66 33 66C51.2273 66 66 51.2273 66 33C66 14.7727 51.2273 0 33 0ZM40.2832 27.4055L39.9094 32.3426H34.8434V49.4871H28.4496V32.3426H25.0336V27.4055H28.4496V24.0926C28.4496 22.6359 28.4883 20.3801 29.5453 18.975C30.6668 17.4926 32.2008 16.4871 34.8434 16.4871C39.1488 16.4871 40.9535 17.1059 40.9535 17.1059L40.1027 22.159C40.1027 22.159 38.6848 21.7465 37.357 21.7465C36.0293 21.7465 34.8434 22.2234 34.8434 23.5512V27.4055H40.2832Z" fill="black"/>
</svg>

<svg xmlns="http://www.w3.org/2000/svg" width="66" height="66" fill="none"><path fill="#000" d="M33 0C14.773 0 0 14.773 0 33s14.773 33 33 33 33-14.773 33-33S51.227 0 33 0Zm7.283 27.405-.374 4.938h-5.066v17.144H28.45V32.343h-3.416v-4.938h3.416v-3.312c0-1.457.038-3.713 1.095-5.118 1.122-1.482 2.656-2.488 5.298-2.488 4.306 0 6.11.619 6.11.619l-.85 5.053s-1.418-.412-2.746-.412-2.514.476-2.514 1.804v3.855h5.44Z"/></svg>
